packages/icons/src/components/CategoryIcon/assets/key-manager.svg

<svg width="20" height="20" viewBox="0 0 20 20" fill="none" xmlns="http://www.w3.org/2000/svg">
<path fill-rule="evenodd" clip-rule="evenodd" d="M9.62809 2.07223C9.86758 1.9759 10.1351 1.97592 10.3745 2.07229L16.3733 4.48608C16.752 4.63844 17 5.00564 17 5.41379L17 5.46725C17.0003 8.03369 17.0012 14.7305 10.4361 17.9005C10.1614 18.0331 9.84132 18.0332 9.56666 17.9006C2.99874 14.7313 2.99966 8.03647 3.00001 5.46889C3.00001 5.45031 3.00001 5.43194 3.00001 5.41379C3.00001 5.00559 3.24813 4.63836 3.62685 4.48603L9.62809 2.07223ZM5.00351 6.08803C5.03971 8.80104 5.44733 13.4171 10.0011 15.8773C14.5517 13.417 14.9601 8.80084 14.9965 6.08791L10.0012 4.07789L5.00351 6.08803Z" fill="#521094" className="fill"/>
<path fill-rule="evenodd" clip-rule="evenodd" d="M10.1079 7.66923C10.2141 7.27274 10.6446 7.00848 11.0995 7.13039C11.5545 7.25229 11.7952 7.69639 11.6889 8.09288C11.5827 8.48936 11.1522 8.75362 10.6973 8.63172C10.2423 8.50982 10.0016 8.06571 10.1079 7.66923ZM11.4878 5.6815C10.2693 5.35501 8.98932 6.04812 8.65897 7.281C8.39706 8.25847 8.82175 9.24058 9.61621 9.76825L9.47869 10.2815L9.0171 10.1578C8.617 10.0506 8.20575 10.288 8.09855 10.6881C7.99134 11.0882 8.22878 11.4995 8.62888 11.6067L9.09046 11.7304L8.98462 12.1254L8.52304 12.0017C8.12294 11.8945 7.71168 12.1319 7.60448 12.532C7.49727 12.9321 7.73471 13.3434 8.13481 13.4506L9.32084 13.7684C9.72094 13.8756 10.1322 13.6381 10.2394 13.238L11.0651 10.1565C12.017 10.0968 12.8759 9.45863 13.1378 8.48111C13.4682 7.24823 12.7062 6.00798 11.4878 5.6815Z" fill="#A060F6" className="fillStrong" />
</svg>

<svg xmlns="http://www.w3.org/2000/svg" width="20" height="20" fill="none" viewBox="0 0 20 20">
    <path fill="#521094" fill-rule="evenodd" d="M9.628 2.072a1 1 0 0 1 .746 0l6 2.414a1 1 0 0 1 .626.928v.053c0 2.567.001 9.264-6.564 12.434a1 1 0 0 1-.87 0C3 14.73 3 8.036 3 5.469v-.055a1 1 0 0 1 .627-.928zM5.004 6.088c.036 2.713.443 7.33 4.997 9.79 4.55-2.461 4.96-7.077 4.996-9.79L10 4.078z" className="fill" clip-rule="evenodd"/>
    <path fill="#a060f6" fill-rule="evenodd" d="M10.108 7.67c.106-.397.537-.662.992-.54s.695.566.589.963c-.106.396-.537.66-.992.539-.455-.122-.695-.566-.59-.963m1.38-1.989c-1.219-.326-2.499.367-2.829 1.6-.262.977.163 1.96.957 2.487l-.137.513-.462-.123a.75.75 0 1 0-.388 1.449l.461.123-.105.395-.462-.123a.75.75 0 1 0-.388 1.449l1.186.317a.75.75 0 0 0 .918-.53l.826-3.081a2.28 2.28 0 0 0 2.073-1.676c.33-1.233-.432-2.473-1.65-2.8" className="fillStrong" clip-rule="evenodd"/>
</svg>
